public/media/Asset 15.svg

<svg xmlns="http://www.w3.org/2000/svg" viewBox="0 0 447 350.5"><defs><style>.cls-1,.cls-2{fill:#960;stroke:#000;stroke-miterlimit:10}.cls-2{fill:#069}.cls-3,.cls-7{font-size:12.02px;font-family:MyriadPro-Regular,Myriad Pro}.cls-3{fill:#fff}</style></defs><g id="Layer_2" data-name="Layer 2"><g id="Layer_1-2" data-name="Layer 1"><ellipse class="cls-1" cx="259.09" cy="29.54" rx="28.09" ry="29.04"/><ellipse class="cls-2" cx="207.76" cy="222.32" rx="28.09" ry="29.04"/><ellipse class="cls-2" cx="294.93" cy="222.32" rx="28.09" ry="29.04"/><ellipse class="cls-2" cx="28.59" cy="320.96" rx="28.09" ry="29.04"/><ellipse class="cls-2" cx="129.31" cy="320.96" rx="28.09" ry="29.04"/><text class="cls-3" transform="matrix(.97 0 0 1 259.33 31.22)">2</text><text class="cls-3" transform="matrix(.97 0 0 1 204.85 227.32)">12</text><text class="cls-3" transform="matrix(.97 0 0 1 290.08 227.32)">25</text><text class="cls-3" transform="matrix(.97 0 0 1 23.74 325.97)">55</text><text class="cls-3" transform="matrix(.97 0 0 1 124.64 327.01)">70</text><path d="M235.61 50.32l-48.43 48.07m90.07-46.57l67.31 43.57M243.84 53.83l-64.41 49.57m-3.39 43.56l28.57 51.57m31-152.72L94.2 203.54M235.61 50.32l-48.43 48.07m44.07 17.02h-.49m4.85-65.09h-.49m-47.94 48.07l47.94-48.07m-55.69 94.14l22.28 49.07M72.41 248.1l-29.54 44.07m53.75-43.57l28.09 43.57M96.62 248.6l48.91 75.61M232.22 37.3c-29.63 0-59.57 27.18-59.57 54.08" fill="none"/><path d="M235.85 46.07l-56.18 57.58m103.15-58.09l61.99 50.08m31.96 46.56l36.8 57.08m-71.67-55.07l-39.22 49.07m-126.39-46.07l25.18 46.07m-57.63-52.08l-49.88 62.09m7.27 39.06l23.24 49.57m-61.5-51.08l-34.38 51.08" fill="none" stroke="#000" stroke-miterlimit="10"/><ellipse class="cls-1" cx="84.76" cy="222.32" rx="28.09" ry="29.04"/><text class="cls-3" transform="matrix(.97 0 0 1 79.92 227.32)">17</text><ellipse class="cls-1" cx="163.69" cy="120.67" rx="28.09" ry="29.04"/><ellipse class="cls-1" cx="358.37" cy="120.67" rx="28.09" ry="29.04"/><text class="cls-3" transform="matrix(.97 0 0 1 160.69 123.02)">7</text><text class="cls-3" transform="matrix(.97 0 0 1 353.52 125.68)">10</text><ellipse class="cls-2" cx="418.41" cy="222.32" rx="28.09" ry="29.04"/><text class="cls-3" transform="matrix(.97 0 0 1 413.76 227.24)">50</text><path fill="#fff" d="M207.04 281.65h22.28v9.51h-22.28z"/><text class="cls-7" transform="matrix(.97 0 0 1 354.23 20.28)"><tspan letter-spacing="-.03em">P</tspan><tspan x="6.08" y="0">a</tspan><tspan x="11.87" y="0" letter-spacing="-.01em">r</tspan><tspan x="15.68" y="0">e</tspan><tspan x="21.7" y="0" letter-spacing="0">n</tspan><tspan x="28.32" y="0">t node</tspan></text><text class="cls-7" transform="matrix(.97 0 0 1 354.07 39.33)">Child node</text><ellipse class="cls-1" cx="340.93" cy="15.27" rx="4.84" ry="5.26"/><ellipse class="cls-2" cx="340.93" cy="34.3" rx="4.84" ry="5.26"/></g></g></svg>

<svg xmlns="http://www.w3.org/2000/svg" viewBox="0 0 447 350.5"><defs><style>.cls-1{fill:#960}.cls-1,.cls-2,.cls-5{stroke:#000;stroke-miterlimit:10}.cls-2{fill:#069}.cls-3,.cls-7{font-size:12.02px;font-family:MyriadPro-Regular,Myriad Pro}.cls-3{fill:#fff}.cls-4,.cls-5{fill:none}</style></defs><g id="Layer_2" data-name="Layer 2"><g id="Layer_1-2" data-name="Layer 1"><ellipse class="cls-1" cx="259.09" cy="29.54" rx="28.09" ry="29.04"/><ellipse class="cls-2" cx="207.76" cy="222.32" rx="28.09" ry="29.04"/><ellipse class="cls-2" cx="294.93" cy="222.32" rx="28.09" ry="29.04"/><ellipse class="cls-2" cx="28.59" cy="320.96" rx="28.09" ry="29.04"/><ellipse class="cls-2" cx="129.31" cy="320.96" rx="28.09" ry="29.04"/><text class="cls-3" transform="matrix(.97 0 0 1 259.33 31.22)">2</text><text class="cls-3" transform="matrix(.97 0 0 1 204.85 227.32)">12</text><text class="cls-3" transform="matrix(.97 0 0 1 290.08 227.32)">25</text><text class="cls-3" transform="matrix(.97 0 0 1 23.74 325.97)">55</text><text class="cls-3" transform="matrix(.97 0 0 1 124.64 327.01)">70</text><path class="cls-4" d="M235.61 50.32l-48.43 48.07M277.25 51.82l67.31 43.57M243.84 53.83l-64.41 49.57M176.04 146.96l28.57 51.57M235.61 45.81L94.2 203.54M235.61 50.32l-48.43 48.07M231.25 115.41h-.49M235.61 50.32h-.49M187.18 98.39l47.94-48.07M179.43 144.46l22.28 49.07M72.41 248.1l-29.54 44.07M96.62 248.6l28.09 43.57M96.62 248.6l48.91 75.61M232.22 37.3c-29.63 0-59.57 27.18-59.57 54.08"/><path class="cls-5" d="M235.85 46.07l-56.18 57.58M282.82 45.56l61.99 50.08M376.77 142.2l36.8 57.08M341.9 144.21l-39.22 49.07M176.29 147.21l25.18 46.07M143.84 141.2l-49.88 62.09M101.23 242.35l23.24 49.57M62.97 240.84l-34.38 51.08"/><ellipse class="cls-1" cx="84.76" cy="222.32" rx="28.09" ry="29.04"/><text class="cls-3" transform="matrix(.97 0 0 1 79.92 227.32)">17</text><ellipse class="cls-1" cx="163.69" cy="120.67" rx="28.09" ry="29.04"/><ellipse class="cls-1" cx="358.37" cy="120.67" rx="28.09" ry="29.04"/><text class="cls-3" transform="matrix(.97 0 0 1 160.69 123.02)">7</text><text class="cls-3" transform="matrix(.97 0 0 1 353.52 125.68)">10</text><ellipse class="cls-2" cx="418.41" cy="222.32" rx="28.09" ry="29.04"/><text class="cls-3" transform="matrix(.97 0 0 1 413.76 227.24)">50</text><path fill="#fff" d="M207.04 281.65h22.28v9.51h-22.28z"/><text class="cls-7" transform="matrix(.97 0 0 1 354.23 20.28)"><tspan letter-spacing="-.03em">P</tspan><tspan x="6.08" y="0">a</tspan><tspan x="11.87" y="0" letter-spacing="-.01em">r</tspan><tspan x="15.68" y="0">e</tspan><tspan x="21.7" y="0" letter-spacing="0">n</tspan><tspan x="28.32" y="0">t node</tspan></text><text class="cls-7" transform="matrix(.97 0 0 1 354.07 39.33)">Child node</text><ellipse class="cls-1" cx="340.93" cy="15.27" rx="4.84" ry="5.26"/><ellipse class="cls-2" cx="340.93" cy="34.3" rx="4.84" ry="5.26"/></g></g></svg>
